public/assets/clients/el-passion-logo.svg

<svg width="126" height="42" viewBox="0 0 126 42" fill="none" xmlns="http://www.w3.org/2000/svg">
<g clip-path="url(#clip0_390_459)">
<path d="M74.0543 11.049C73.9834 17.0692 69.0559 21.9562 62.994 21.8854C56.9321 21.8146 52.0755 16.8921 52.111 10.8365C52.1819 4.78084 57.1094 -0.0707625 63.1713 6.37986e-05C69.2686 0.035477 74.1252 4.99332 74.0543 11.049Z" fill="black"/>
<path d="M63.0651 13.8468V15.4758H57.6413V6.76416H62.9942V8.39317H59.3429V10.2701H62.6752V11.8637H59.3429V13.8468H63.0651Z" fill="white"/>
<path d="M69.3396 13.8468V15.4758H64.2703V6.76416H66.0073V13.8468H69.3396Z" fill="white"/>
<path d="M80.7545 20.1147C80.7545 21.9208 79.3011 23.3373 77.5286 23.3373C75.7207 23.3373 74.3027 21.8853 74.3027 20.1147C74.3027 18.3086 75.7561 16.8921 77.5286 16.8921C79.3011 16.8921 80.7545 18.344 80.7545 20.1147Z" fill="black"/>
<path d="M46.6525 6.26788C43.1784 2.47868 35.9112 -0.000244141 28.2187 -0.000244141C26.8007 -0.000244141 25.3472 0.0705822 23.9292 0.247648C14.3933 1.41628 6.45251 5.55962 2.19855 11.6153C-0.0347875 14.6962 -0.601983 18.2021 0.638758 21.106C1.6668 23.4787 4.39643 26.4534 11.5218 27.3033C11.8409 27.3387 12.3372 27.3033 12.5853 26.7367L13.7552 24.2932C13.8261 24.1515 13.8261 23.9745 13.7197 23.8328C13.6488 23.6912 13.507 23.5849 13.3298 23.5849C7.23241 23.0537 5.10542 20.9998 4.36098 19.3708C3.61654 17.7417 4.00648 15.7586 5.42447 13.7755C8.96945 8.74681 15.7758 5.31173 24.071 4.35557C25.2409 4.21392 26.4462 4.14309 27.6515 4.14309C34.1388 4.14309 40.5552 6.23247 43.2848 9.20718C44.2065 10.1987 44.5964 11.1903 44.5255 12.1819C44.1356 16.5731 34.8478 20.3269 27.4742 20.3269C27.297 20.3269 27.1197 20.3269 26.9425 20.3269L30.2393 13.138C30.3456 12.9256 30.3102 12.6423 30.0975 12.5006L27.7578 10.7299C27.6515 10.6237 27.4742 10.5883 27.297 10.6237C24.2128 11.2966 19.7462 12.3235 17.6901 15.4399C16.9102 16.6439 16.7329 18.0605 17.1938 19.4416C17.761 21.1414 19.3208 22.5579 21.4123 23.337L14.0388 39.5562C13.9324 39.7687 13.9679 40.052 14.1806 40.1937L16.3784 41.8935C16.4848 41.9643 16.5911 41.9998 16.6975 41.9998C16.7329 41.9998 16.8038 41.9998 16.8393 41.9643C17.0165 41.9289 17.1583 41.7873 17.2292 41.6456L25.17 24.2224C25.9853 24.3286 26.8361 24.364 27.7224 24.364C32.2245 24.364 37.2938 23.16 41.2642 21.1414C45.8372 18.8041 48.4959 15.617 48.8149 12.1465C49.0631 10.0571 48.2832 8.03854 46.6525 6.26788ZM25.2054 15.0149L23.1139 19.6541C22.2631 19.2999 21.4478 18.6625 21.1996 17.9542C21.1287 17.7063 21.1287 17.4584 21.306 17.2105C21.8023 16.1836 23.8938 15.3337 25.2054 15.0149Z" fill="black"/>
<path d="M124.854 31.9427L122.124 30.1366C122.018 30.0658 121.841 30.0303 121.699 30.1012C117.693 31.5531 113.581 33.9966 110.497 36.0152C112.695 30.0658 113.51 27.7993 113.794 27.0556C113.864 26.8786 113.829 26.6307 113.652 26.489L111.489 24.86C111.348 24.7538 111.17 24.7184 111.029 24.7892C106.739 26.489 103.62 28.6492 101.067 30.9511L102.237 27.7285C102.308 27.5514 102.237 27.3035 102.095 27.1973L99.8973 25.5329C99.72 25.3912 99.4364 25.4266 99.2947 25.6037C97.8058 27.1619 96.246 28.0826 94.6507 28.2951C94.438 27.6931 94.0835 27.1619 93.6227 26.7015C92.701 25.8162 91.4248 25.1433 88.3052 25.6745C88.128 25.7099 88.0216 25.8162 87.9507 25.9578C87.5253 27.0911 87.1708 28.0472 86.9936 28.543C86.9227 28.7555 86.9581 28.968 87.0645 29.145C87.738 30.0303 89.2269 30.9511 91.0703 31.4115C89.7232 34.9528 85.6819 38.7774 82.5978 38.2108C82.1724 38.14 81.428 37.6088 81.1444 36.7234C80.8962 35.8735 80.8253 33.5008 85.2211 29.145C85.3275 29.0388 85.3629 28.9325 85.3629 28.7909C85.3629 28.6492 85.292 28.543 85.1857 28.4368L83.0941 26.8432C82.9169 26.7015 82.6687 26.7369 82.4915 26.8786L74.1608 34.4216L76.7841 27.3744C76.855 27.1619 76.7841 26.9494 76.6068 26.8432L74.4798 25.2496C74.3026 25.1433 74.0899 25.1433 73.9126 25.2496L65.0857 32.403C64.7666 32.0489 64.4476 31.7302 64.164 31.4469C63.4195 30.7386 62.746 30.0658 62.746 29.4637C62.746 29.145 62.9232 28.4013 64.0576 27.1973C64.1285 27.0911 64.1994 26.9848 64.164 26.8432C64.164 26.7015 64.0931 26.5953 63.9867 26.5244L61.8597 24.8954C61.6825 24.7538 61.4343 24.7892 61.2925 24.9309C57.8185 27.9056 55.1952 30.1366 53.2454 31.801C53.21 31.7656 53.1745 31.7302 53.1391 31.6948C51.5439 30.2074 50.8349 29.57 52.9264 27.0911C52.9973 26.9848 53.0327 26.8786 53.0327 26.7369C53.0327 26.5953 52.9618 26.489 52.8555 26.4182L50.764 24.8246C50.5867 24.683 50.3386 24.7184 50.1613 24.86L39.2428 35.6965L40.3417 32.8634C40.4481 32.6509 40.3772 32.4384 40.1999 32.2968L37.8603 30.5615C37.7539 30.4907 37.6476 30.4553 37.5058 30.4553C37.364 30.4907 37.2576 30.5615 37.1867 30.6324C32.6846 37.0422 29.9195 38.4233 28.0052 38.4233C24.5666 38.4233 26.8708 33.9966 29.1751 31.9072C30.7703 30.4553 35.0597 27.1973 41.0153 29.7825C41.2634 29.8887 41.5116 29.7825 41.6179 29.57L42.7169 27.2327C42.7878 27.1265 42.7878 26.9848 42.7169 26.8786C42.6814 26.7723 42.5751 26.6661 42.4687 26.6307C36.974 24.2226 31.1603 25.3558 26.7645 29.3575C23.5386 32.3322 22.0497 36.1568 23.0423 38.8836C23.7158 40.7251 25.4529 41.9292 27.828 41.9292C29.4941 41.9292 32.0465 41.4688 35.4142 38.2816L35.2015 39.3794C35.1661 39.5565 35.237 39.7336 35.3788 39.8398C35.5206 39.946 36.974 41.0438 37.6476 41.5396C37.8248 41.6813 38.073 41.6459 38.2502 41.5042L48.4243 31.4115C48.9206 32.5447 49.7714 33.3946 50.4804 34.0674C49.4878 34.9174 48.7788 35.5548 48.247 36.0152C46.6518 37.3963 45.6946 38.14 44.3121 39.2378C44.1703 39.344 44.064 39.6627 44.3121 39.8398C44.3121 39.8398 46.1909 41.2563 46.829 41.7167C47.0772 41.8938 47.1835 42 47.5735 41.9646C50.1259 41.7521 53.3518 40.2647 54.8407 37.3255C55.3724 36.2985 55.4079 35.3777 55.1952 34.5986C56.365 33.6071 57.7476 32.403 59.4491 30.9511C59.91 32.1906 60.8671 33.1467 61.647 33.9258C61.9306 34.1737 62.1433 34.4216 62.2851 34.5986C62.2851 34.5986 57.4285 38.6003 56.0105 39.6981C55.8687 39.8044 55.7624 40.1231 56.0105 40.3002C56.0105 40.3002 57.074 41.2209 57.7121 41.6813C57.9603 41.8583 58.0666 41.9646 58.4566 41.9292C61.3989 41.6813 65.2629 39.6981 66.2909 35.8027H66.3264L71.3248 31.7302L68.5243 39.3086C68.4534 39.4857 68.5243 39.7336 68.6661 39.8398L70.6867 41.3626C70.864 41.5042 71.1121 41.4688 71.2894 41.3271L77.4576 35.7673C77.4576 36.4047 77.5285 37.1838 77.6703 37.6442C78.3793 39.9814 80.329 41.2917 81.8179 41.575C86.2137 42.425 92.6655 38.1754 94.5089 31.7656C95.4306 31.6948 96.3169 31.4823 97.2031 31.1636L94.3317 39.0253C94.2608 39.2024 94.3317 39.4502 94.5089 39.5565L96.7068 41.1855C96.8132 41.2563 96.955 41.2917 97.0968 41.2563C97.2386 41.2209 97.3449 41.1501 97.4158 41.0084C98.3375 39.3086 101.776 33.4654 109.15 29.4637C107.873 32.8634 107.094 34.9882 105.427 39.6273C105.357 39.8398 105.427 40.0523 105.605 40.1585L107.909 41.6813C108.086 41.7875 108.299 41.7875 108.441 41.6813C110.355 40.2293 118.331 34.4924 124.712 32.7572C124.889 32.7217 125.031 32.5801 125.031 32.3676C125.102 32.226 125.031 32.0489 124.854 31.9427Z" fill="black"/>
</g>
<defs>
<clipPath id="clip0_390_459">
<rect width="125.067" height="42" fill="white"/>
</clipPath>
</defs>
</svg>

<svg xmlns="http://www.w3.org/2000/svg" width="126" height="42" fill="none"><g clip-path="url(#a)"><path fill="#000" d="M74.054 11.049c-.07 6.02-4.998 10.907-11.06 10.836-6.062-.07-10.919-4.993-10.883-11.049C52.181 4.781 57.109-.07 63.171 0 69.27.035 74.125 4.993 74.054 11.05Z"/><path fill="#fff" d="M63.065 13.847v1.629h-5.424V6.764h5.353v1.63h-3.651v1.876h3.332v1.594h-3.332v1.983h3.722ZM69.34 13.847v1.629h-5.07V6.764h1.737v7.083h3.333Z"/><path fill="#000" d="M80.754 20.115a3.213 3.213 0 0 1-3.225 3.222 3.213 3.213 0 0 1-3.226-3.222 3.213 3.213 0 0 1 3.226-3.223 3.236 3.236 0 0 1 3.225 3.223ZM46.653 6.268C43.178 2.478 35.91 0 28.219 0c-1.418 0-2.872.07-4.29.248C14.393 1.416 6.453 5.56 2.2 11.615c-2.234 3.081-2.801 6.587-1.56 9.491 1.028 2.373 3.757 5.347 10.883 6.197.319.036.815 0 1.063-.566l1.17-2.444a.435.435 0 0 0-.035-.46.436.436 0 0 0-.39-.248C7.232 23.054 5.105 21 4.36 19.37c-.744-1.63-.355-3.612 1.063-5.595 3.545-5.03 10.352-8.464 18.647-9.42a29.91 29.91 0 0 1 3.58-.213c6.488 0 12.904 2.09 15.634 5.064.922.992 1.311 1.983 1.24 2.975-.39 4.391-9.677 8.145-17.05 8.145h-.533l3.297-7.189c.107-.212.071-.496-.142-.637l-2.34-1.771c-.106-.106-.283-.142-.46-.106-3.084.673-7.55 1.7-9.607 4.816-.78 1.204-.957 2.62-.496 4.002.567 1.7 2.127 3.116 4.218 3.895l-7.373 16.22c-.107.212-.071.495.142.637l2.197 1.7c.107.07.213.106.32.106.035 0 .106 0 .141-.036a.593.593 0 0 0 .39-.318l7.941-17.424c.815.107 1.666.142 2.552.142 4.502 0 9.572-1.204 13.542-3.223 4.573-2.337 7.232-5.524 7.55-8.994.25-2.09-.53-4.108-2.161-5.88Zm-21.448 8.747-2.091 4.64c-.85-.355-1.666-.992-1.914-1.7-.071-.249-.071-.497.106-.744.496-1.027 2.588-1.877 3.9-2.196Z"/><path fill="#000" d="m124.854 31.943-2.73-1.806a.447.447 0 0 0-.425-.036c-4.006 1.452-8.118 3.896-11.202 5.914 2.198-5.95 3.013-8.216 3.297-8.96a.504.504 0 0 0-.142-.566l-2.163-1.629c-.141-.106-.319-.142-.46-.07-4.29 1.699-7.409 3.86-9.962 6.161l1.17-3.223a.492.492 0 0 0-.142-.53l-2.198-1.665a.443.443 0 0 0-.602.07c-1.49 1.559-3.049 2.48-4.644 2.692a4.256 4.256 0 0 0-1.028-1.594c-.922-.885-2.198-1.558-5.318-1.027a.487.487 0 0 0-.354.284c-.426 1.133-.78 2.09-.957 2.585a.713.713 0 0 0 .07.602c.674.885 2.163 1.806 4.006 2.267-1.347 3.54-5.388 7.365-8.472 6.799-.426-.071-1.17-.602-1.454-1.488-.248-.85-.319-3.222 4.077-7.578a.454.454 0 0 0 .142-.354c0-.142-.071-.248-.177-.354l-2.092-1.594c-.177-.142-.425-.106-.602.036l-8.331 7.543 2.623-7.048c.071-.212 0-.425-.177-.53L74.48 25.25a.544.544 0 0 0-.567 0l-8.827 7.153a24.89 24.89 0 0 0-.922-.956c-.745-.708-1.418-1.381-1.418-1.983 0-.319.177-1.063 1.312-2.267.07-.106.141-.212.106-.354a.372.372 0 0 0-.177-.319l-2.127-1.629a.431.431 0 0 0-.568.036c-3.474 2.975-6.097 5.206-8.047 6.87l-.106-.106c-1.595-1.488-2.304-2.125-.213-4.604a.598.598 0 0 0 .107-.354.372.372 0 0 0-.178-.319l-2.091-1.593c-.177-.142-.425-.107-.603.035L39.243 35.697l1.099-2.834c.106-.212.035-.425-.142-.566l-2.34-1.735a.6.6 0 0 0-.354-.107.685.685 0 0 0-.32.177c-4.501 6.41-7.267 7.791-9.18 7.791-3.44 0-1.135-4.426 1.17-6.516 1.594-1.452 5.884-4.71 11.84-2.125.247.107.496 0 .602-.212l1.099-2.337a.321.321 0 0 0 0-.354.428.428 0 0 0-.248-.248c-5.495-2.408-11.309-1.275-15.704 2.727-3.226 2.974-4.715 6.799-3.723 9.526.674 1.841 2.41 3.045 4.786 3.045 1.666 0 4.219-.46 7.586-3.647l-.212 1.097a.46.46 0 0 0 .177.46c.142.107 1.595 1.205 2.269 1.7.177.142.425.107.602-.035l10.174-10.092c.497 1.133 1.347 1.983 2.056 2.655-.992.85-1.701 1.488-2.233 1.948-1.595 1.381-2.552 2.125-3.935 3.223-.142.106-.248.425 0 .602 0 0 1.879 1.416 2.517 1.877.248.177.355.283.745.248 2.552-.213 5.778-1.7 7.267-4.64.531-1.027.567-1.947.354-2.726 1.17-.992 2.553-2.196 4.254-3.648.461 1.24 1.418 2.196 2.198 2.975.284.248.496.496.638.673 0 0-4.856 4.001-6.274 5.1-.142.105-.249.424 0 .601 0 0 1.063.92 1.701 1.381.248.177.355.284.745.248 2.942-.248 6.806-2.23 7.834-6.126h.035l4.999-4.073-2.8 7.579c-.072.177 0 .425.141.53l2.02 1.524c.178.141.426.106.603-.036l6.169-5.56c0 .638.07 1.417.212 1.877.71 2.337 2.659 3.648 4.148 3.931 4.396.85 10.847-3.4 12.69-9.81.923-.07 1.809-.283 2.695-.601l-2.871 7.861c-.071.177 0 .425.177.532l2.198 1.628c.106.071.248.107.39.071a.45.45 0 0 0 .319-.248c.922-1.7 4.36-7.543 11.734-11.544a644.6 644.6 0 0 0-3.723 10.163c-.07.213 0 .425.178.531l2.304 1.523c.177.107.39.107.532 0 1.914-1.452 9.89-7.189 16.271-8.924a.386.386 0 0 0 .319-.39c.071-.141 0-.318-.177-.424Z"/></g><defs><clipPath id="a"><path fill="#fff" d="M0 0h125.067v42H0z"/></clipPath></defs></svg>
